!!!!SEGMENT: pl-cz--ii-116--001_jeric--partita-b-allegro.krn
!!!id: 18xx:2469
!!!COM: Jeric
!!!COM-rism: pe30098283
!!!CDT:
!!!CNT:
!!!OTL: Partita B - Allegro
!!!PDT: 1801
!!!OMD: Allegro
!!!SMS-siglum: PL-CZ
!!!SMS-shelfmark: II-116
!!!NIFC-rismID: 300000527
!!!URL-scan: http://repozytorium.nifc.pl/skany/pl-cz-nut--ii-116
!!!ONB-nifc: UWAGA: części Partity: 1. Allegro, 2. Menuetto, 3. Andante, 4. Menuetto, 5. Rondo. W Particie 2 Menuety (002 i 004). Kontynuacja partii Fagotu na skanie 0008, str. 8
!!!SMS-variant:
!!!SMS-altvar:
**kern	**dynam	**kern	**dynam	**kern	**dynam	**kern	**dynam	**kern	**dynam
*part5	*part5	*part4	*part4	*part3	*part3	*part2	*part2	*part1	*part1
*staff5	*	*staff4	*	*staff3	*	*staff2	*	*staff1	*
*I"Fagotto	*	*I"Cornu Secondo in B	*	*I"Cornu Primo in B	*	*I"Clarinetto Secundo in B.	*	*I"Clarinetto Primo in B.	*
*I'Fag.	*	*I'cor 2 in B	*	*I'cor 1 in B	*	*I'cl 2 in B	*	*I'cl 1 in B	*
*clefF4	*	*clefG2	*	*clefG2	*	*clefG2	*	*clefG2	*
*	*	*ITrd1c2	*	*ITrd1c2	*	*ITrd1c2	*	*ITrd1c2	*
*k[b-e-]	*	*k[b-e-]	*	*k[b-e-]	*	*k[b-e-]	*	*k[b-e-]	*
*M4/4	*	*M4/4	*	*M4/4	*	*M4/4	*	*M4/4	*
*met(c)	*	*met(c)	*	*met(c)	*	*met(c)	*	*met(c)	*
=1	=1	=1	=1	=1	=1	=1	=1	=1	=1
*>A	*	*	*	*	*	*	*	*	*
!	!LO:DY:a:t=pia&colon;	!	!LO:DY:a:t=pia&colon;	!	!LO:DY:a:t=pia&colon;	!	!LO:DY:a:t=pia&colon;	!	!LO:DY:a:t=pia&colon;
4BB-/	p	4d/	p	4b-\	p	4d/	p	8ff\L	p
.	.	.	.	.	.	.	.	8eeX\	.
4B-\	.	4d/	.	4b-\	.	4d/	.	8ff\	.
.	.	.	.	.	.	.	.	8ee\J	.
4B-\	.	4d/	.	4b-\	.	4d/	.	4ff\	.
4r	.	4r	.	4r	.	4r	.	4bb-\	.
=2	=2	=2	=2	=2	=2	=2	=2	=2	=2
4BB-/	.	4d/	.	4b-\	.	4d/	.	8ff\L	.
.	.	.	.	.	.	.	.	8eeX\	.
4B-\	.	4d/	.	4b-\	.	4d/	.	8ff\	.
.	.	.	.	.	.	.	.	8ee\J	.
4B-\	.	4d/	.	4b-\	.	4d/	.	4ff\	.
4r	.	4r	.	4r	.	4r	.	4dd\	.
=3	=3	=3	=3	=3	=3	=3	=3	=3	=3
4B-\	.	4d/	.	4b-\	.	4d/	.	4b-\	.
4r	.	4r	.	4r	.	4r	.	8b-\L	.
.	.	.	.	.	.	.	.	8dd\J	.
4F\	.	4f/	.	4cc\	.	4a\	.	4cc\	.
4r	.	4r	.	4r	.	4r	.	8cc\L	.
.	.	.	.	.	.	.	.	8ee-X\J	.
=4	=4	=4	=4	=4	=4	=4	=4	=4	=4
4BB-/	.	4b-\	.	4dd\	.	8b-\L	.	(8dd\L	.
.	.	.	.	.	.	8dd\	.	8ff\	.
4B-\	.	4r	.	4r	.	8cc\	.	8ee-\)	.
.	.	.	.	.	.	8b-\J	.	8dd\J	.
*2\right	*	*	*	*	*	*	*	*	*
2F\	.	4d/	.	4b-\	.	4b-\	.	4dd\	.
.	.	4f/	.	4cc\	.	4a\	.	4cc\	.
=5	=5	=5	=5	=5	=5	=5	=5	=5	=5
!	!LO:DY:rj	!	!LO:DY:rj:t=fu	!	!	!	!LO:DY:rj	!	!
4BBB-/	f	1d/	f	1b-\	f	4D/	f	8ff\L	f
.	.	.	.	.	.	.	.	(8eeX\	.
4BB-/	.	.	.	.	.	4D/	.	8ff\)	.
.	.	.	.	.	.	.	.	8ee\J	.
4BB-/	.	.	.	.	.	4D/	.	4ff\	.
4r	.	.	.	.	.	4r	.	4bb-\	.
=6	=6	=6	=6	=6	=6	=6	=6	=6	=6
4BBB-/	.	1d/	.	1b-\	.	4D/	.	8ff\L	.
!	!	!	!	!	!	!	!	!LO:SIC:o:s:v:t=8ee	!
.	.	.	.	.	.	.	.	(8ee-\	.
4BB-/	.	.	.	.	.	4D/	.	8ff\)	.
!	!	!	!	!	!	!	!	!LO:SIC:o:s:v:t=8ee	!
.	.	.	.	.	.	.	.	8ee-\J	.
4BB-/	.	.	.	.	.	4D/	.	4ff\	.
4r	.	.	.	.	.	4r	.	4dd\	.
=7	=7	=7	=7	=7	=7	=7	=7	=7	=7
4BB-/	.	4d/	.	4b-\	.	4D/	.	(8b-\L	.
.	.	.	.	.	.	.	.	8a\)	.
!	!	!	!	!	!	!	!	!LO:TX:a:t=|:problem	!
4r	.	4r	.	4r	.	4r	.	8b-\	.
.	.	.	.	.	.	.	.	8dd\J	.
4FF/	.	4f/	.	4cc\	.	4A/	.	8cc\L	.
.	.	.	.	.	.	.	.	(8b-\	.
4r	.	4r	.	4r	.	4r	.	8cc\)	.
!	!	!	!	!	!	!	!	!LO:TX:a:t=|:problem	!
.	.	.	.	.	.	.	.	8ee-X\J	.
!	!	!	!	!	!	!LO:LB:g=original	!	!LO:LB:g=original	!
=8	=8	=8	=8	=8	=8	=8	=8	=8	=8
4BB-/	.	4b-\	.	4dd\	.	4B-/	.	(8dd\L	.
.	.	.	.	.	.	.	.	8ee-\	.
!	!	!	!	!	!	!	!	!LO:SIC:v:t=poprawione dźwięki	!
!	!	!	!	!	!	!	!	!LO:TX:a:t=d	!
4FF/	.	4f/	.	4cc\	.	4G/	.	8cc\	.
.	.	.	.	.	.	.	.	8a\J)	.
4BBB-/	.	4d/	.	4b-\	.	4D/	.	4b-\	.
4r	.	4r	.	4r	.	4r	.	4r	.
!LO:LB:g=original	!	!	!	!	!	!	!	!	!
=9:|!|:	=9:|!|:	=9:|!|:	=9:|!|:	=9:|!|:	=9:|!|:	=9:|!|:	=9:|!|:	=9:|!|:	=9:|!|:
*>B	*	*	*	*	*	*	*	*	*
!	!	!	!LO:DY:t=pu	!	!LO:DY:rj:t=p&colon;	!	!LO:DY:rj:t=p&colon;	!	!LO:DY:rj:t=p&colon;
4F\	p	4f/	p	4cc\	p	4e-/	p	8aa\L	p
.	.	.	.	.	.	.	.	8bb-\	.
4r	.	4r	.	4r	.	4r	.	8ccc\	.
.	.	.	.	.	.	.	.	8bb-\J	.
4FF/	.	4f/	.	4cc\	.	4e-/	.	8aa\L	.
.	.	.	.	.	.	.	.	8gg\	.
4r	.	4r	.	4r	.	4r	.	8aa\	.
.	.	.	.	.	.	.	.	8ff\J	.
!	!	!LO:LB:g=original	!	!LO:LB:g=original	!	!	!	!	!
=10	=10	=10	=10	=10	=10	=10	=10	=10	=10
4BB-/	.	4b-\	.	4dd\	.	4d/	.	8bb-\L	.
.	.	.	.	.	.	.	.	8aa\	.
4r	.	4r	.	4r	.	4r	.	8gg\	.
.	.	.	.	.	.	.	.	8ff\J	.
2r	.	2r	.	2r	.	2r	.	8ee-\L	.
.	.	.	.	.	.	.	.	8dd\	.
.	.	.	.	.	.	.	.	8cc\	.
.	.	.	.	.	.	.	.	8b-\J	.
=11	=11	=11	=11	=11	=11	=11	=11	=11	=11
4F\	.	4f/	.	4cc\	.	4A/	.	(8ff\L	.
.	.	.	.	.	.	.	.	8ee-\)	.
4r	.	4r	.	4r	.	4r	.	8cc'\	.
.	.	.	.	.	.	.	.	8ee-'\J	.
4B-\	.	4b-\	.	4dd\	.	4B-/	.	(8ee-\L	.
.	.	.	.	.	.	.	.	8dd\)	.
!	!	!	!	!	!	!	!	!LO:TX:a:t=|:problem	!
4r	.	4r	.	4r	.	4r	.	8a\	.
!	!	!	!	!	!	!	!	!LO:TX:a:t=|:problem	!
.	.	.	.	.	.	.	.	8dd\J	.
!!linebreak:original
=12	=12	=12	=12	=12	=12	=12	=12	=12	=12
4F\	.	4f/	.	4cc\	.	8A/L	.	8cc\L	.
.	.	.	.	.	.	8G/	.	8b-\	.
4r	.	4r	.	4r	.	8A/	.	8cc\	.
.	.	.	.	.	.	8B-/J	.	8dd\J	.
2r	.	2r	.	2r	.	4A/	.	4cc\	.
.	.	.	.	.	.	4r	.	4f/	.
=13	=13	=13	=13	=13	=13	=13	=13	=13	=13
!	!	!	!LO:DY:rj:t=fu	!	!	!	!LO:DY:rj	!	!LO:DY:rj:t=fu
1FF/	.	1f/	f	1cc\	f	1E-/	f	8aa\L	f
.	.	.	.	.	.	.	.	8bb-\	.
.	.	.	.	.	.	.	.	8ccc\	.
.	.	.	.	.	.	.	.	8bb-\J	.
.	.	.	.	.	.	.	.	8aa\L	.
.	.	.	.	.	.	.	.	8gg\	.
.	.	.	.	.	.	.	.	8aa\	.
.	.	.	.	.	.	.	.	8ff\J	.
=14	=14	=14	=14	=14	=14	=14	=14	=14	=14
4BBB-/	.	4b-\	.	4dd\	.	4D/	.	8bb-\L	.
.	.	.	.	.	.	.	.	8aa\	.
4r	.	4r	.	4r	.	4r	.	8gg\	.
.	.	.	.	.	.	.	.	8ff\J	.
2r	.	2r	.	2r	.	2r	.	8ee-\L	.
.	.	.	.	.	.	.	.	8dd\	.
.	.	.	.	.	.	.	.	8cc\	.
.	.	.	.	.	.	.	.	8b-\J	.
!	!	!	!	!	!	!	!	!LO:LB:g=original	!
=15	=15	=15	=15	=15	=15	=15	=15	=15	=15
*	*	*	*	*2\right	*	*	*	*	*
2D\	.	2f/	.	2cc\	.	2A/	.	8ff\L	.
.	.	.	.	.	.	.	.	8ee-\	.
.	.	.	.	.	.	.	.	8cc\	.
.	.	.	.	.	.	.	.	8ee-\J	.
2B-\	.	2b-\	.	2dd\	.	2B-/	.	8ee-\L	.
.	.	.	.	.	.	.	.	8dd\	.
.	.	.	.	.	.	.	.	8b-\	.
.	.	.	.	.	.	.	.	8dd\J	.
=16	=16	=16	=16	=16	=16	=16	=16	=16	=16
4F\	.	4f/	.	4cc\	.	4A/	.	4cc\	.
4r	.	4f/	.	4cc\	.	4r	.	4r	.
2r	.	4f/	.	4cc\	.	2r	.	4r	.
.	.	4r	.	4r	.	.	.	16r	.
.	.	.	.	.	.	.	.	(16f\LL	.
.	.	.	.	.	.	.	.	16b-\)	.
.	.	.	.	.	.	.	.	16dd\JJ	.
=17	=17	=17	=17	=17	=17	=17	=17	=17	=17
!	!LO:DY:rj	!	!LO:DY:rj	!	!	!	!	!	!LO:DY:t=p&colon;
4BB-/	p	4d/	p	4b-\	p	4d/	.	8ff\L	p
.	.	.	.	.	.	.	.	(8eeX\	.
4B-\	.	4d/	.	4b-\	.	4d/	.	8ff\)	.
.	.	.	.	.	.	.	.	8ee\J	.
4B-\	.	4d/	.	4b-\	.	4d/	.	4ff\	.
4r	.	4r	.	4r	.	4r	.	4bb-\	.
!	!	!	!	!	!	!LO:LB:g=original	!	!	!
=18	=18	=18	=18	=18	=18	=18	=18	=18	=18
4BB-/	.	4d/	.	4b-\	.	4d/	.	(8ff\L	.
!	!	!	!	!	!	!	!	!LO:SIC:o:s:v:t=8ee	!
.	.	.	.	.	.	.	.	8ee-\	.
4B-\	.	4d/	.	4b-\	.	4d/	.	8ff\)	.
!	!	!	!	!	!	!	!	!LO:SIC:o:s:v:t=8ee	!
.	.	.	.	.	.	.	.	8ee-\J	.
4B-\	.	4d/	.	4b-\	.	4d/	.	4ff\	.
4r	.	4r	.	4r	.	4r	.	4dd\	.
!LO:LB:g=original	!	!	!	!	!	!	!	!	!
=19	=19	=19	=19	=19	=19	=19	=19	=19	=19
4B-\	.	4d/	.	4b-\	.	4d/	.	4b-\	.
4r	.	4r	.	4r	.	4r	.	8b-\L	.
.	.	.	.	.	.	.	.	8dd\J	.
!	!	!LO:LB:g=original	!	!	!	!	!	!	!
4F\	.	4f/	.	4cc\	.	4a\	.	4cc\	.
4r	.	4r	.	4r	.	4r	.	8cc\L	.
.	.	.	.	.	.	.	.	8ee-X\J	.
=20	=20	=20	=20	=20	=20	=20	=20	=20	=20
4BB-/	.	4b-\	.	4dd\	.	8b-\L	.	8dd\L	.
.	.	.	.	.	.	8dd\	.	(8ff\	.
4B-\	.	4r	.	4r	.	8cc\	.	8ee-\)	.
.	.	.	.	.	.	8b-\J	.	8dd\J	.
2F\	.	4d/	.	4b-\	.	4b-\	.	4dd\	.
.	.	4f/	.	4cc\	.	4a\	.	4cc\	.
!	!	!	!	!LO:LB:g=original	!	!	!	!	!
=21	=21	=21	=21	=21	=21	=21	=21	=21	=21
!	!LO:DY:rj	!	!LO:DY:rj	!	!LO:DY:rj:t=fu	!	!LO:DY:rj	!	!LO:DY:t=forte
4BBB-/	f	1d/	f	1b-\	f	4D/	f	8ff\L	f
.	.	.	.	.	.	.	.	(8eeX\	.
4BB-/	.	.	.	.	.	4D/	.	8ff\)	.
.	.	.	.	.	.	.	.	8ee\J	.
4BB-/	.	.	.	.	.	4D/	.	4ff\	.
4r	.	.	.	.	.	4r	.	4bb-\	.
!	!	!	!	!	!	!	!	!LO:LB:g=original	!
=22	=22	=22	=22	=22	=22	=22	=22	=22	=22
!	!	!	!	!LO:TX:a:t=c	!	!	!	!	!
4BBB-/	.	1d/	.	1b-\	.	4D/	.	8ff\L	.
.	.	.	.	.	.	.	.	(8eeX\	.
4BB-/	.	.	.	.	.	4D/	.	8ff\)	.
.	.	.	.	.	.	.	.	8ee\J	.
4BB-/	.	.	.	.	.	4D/	.	4ff\	.
4r	.	.	.	.	.	4r	.	4dd\	.
=23	=23	=23	=23	=23	=23	=23	=23	=23	=23
4BB-/	.	4d/	.	4b-\	.	4D/	.	8b-\L	.
.	.	.	.	.	.	.	.	(8a\	.
4r	.	2r	.	4r	.	4r	.	8b-\)	.
.	.	.	.	.	.	.	.	8dd\J	.
4FF/	.	.	.	4cc\	.	4A/	.	8cc\L	.
.	.	.	.	.	.	.	.	(8b-\	.
4r	.	4f/	.	4r	.	4r	.	8cc\)	.
.	.	.	.	.	.	.	.	8ee-X\J	.
!!linebreak:original
=24	=24	=24	=24	=24	=24	=24	=24	=24	=24
4BB-/	.	4b-\	.	4dd\	.	4B-/	.	(8dd\L	.
.	.	.	.	.	.	.	.	8ee-\	.
4FF/	.	4f/	.	4cc\	.	4E-/	.	8cc\)	.
.	.	.	.	.	.	.	.	8a\J	.
4BBB-/	.	4d/	.	4b-\	.	4D/	.	4b-\	.
4r	.	4r	.	4r	.	4r	.	4r	.
=25:|!|:	=25:|!|:	=25:|!|:	=25:|!|:	=25:|!|:	=25:|!|:	=25:|!|:	=25:|!|:	=25:|!|:	=25:|!|:
*>C	*	*	*	*	*	*	*	*	*
!	!LO:DY:rj:t=p&colon;	!LO:TX:a:t=2.	!	!LO:TX:a:t=2.	!	!	!LO:DY:rj:t=p&colon;	!	!LO:DY:rj:t=p&colon;
1F\	p	0r	.	0r	.	1e-/	p	8ff\L	p
.	.	.	.	.	.	.	.	(8ee-\	.
.	.	.	.	.	.	.	.	8ee-\)	.
.	.	.	.	.	.	.	.	8dd\J	.
.	.	.	.	.	.	.	.	(8dd\L	.
.	.	.	.	.	.	.	.	8ee-\)	.
!	!	!	!	!	!	!	!	!LO:TX:a:t=|:problem	!
.	.	.	.	.	.	.	.	8cc\	.
!	!	!	!	!	!	!	!	!LO:TX:a:t=|:problem	!
.	.	.	.	.	.	.	.	8a\J	.
=26	=26	=26	=26	=26	=26	=26	=26	=26	=26
!	!	!	!	!	!	!	!	!LO:TX:a:t=|:problem	!
4B-\	.	.	.	.	.	4d/	.	4b-\	.
!	!	!	!	!	!	!	!	!LO:TX:a:t=|:problem	!
4F\	.	.	.	.	.	4a\	.	4cc\	.
!	!	!	!	!	!	!	!	!LO:TX:a:t=|:problem	!
4BB-/	.	.	.	.	.	4b-\	.	4dd\	.
4r	.	.	.	.	.	4r	.	4r	.
!	!	!	!	!	!	!LO:LB:g=original	!	!	!
=27	=27	=27	=27	=27	=27	=27	=27	=27	=27
!	!LO:DY:rj	!	!LO:DY:rj:t=fu	!	!LO:DY:rj:t=fu	!	!LO:DY:rj	!	!LO:DY:rj:t=fu
1FF/	f	1f/	f	1cc\	f	1E-/	f	8ff\L	f
.	.	.	.	.	.	.	.	8ee-\	.
.	.	.	.	.	.	.	.	(8ee-\	.
.	.	.	.	.	.	.	.	8dd\J)	.
.	.	.	.	.	.	.	.	8dd\L	.
.	.	.	.	.	.	.	.	(8ee-\	.
.	.	.	.	.	.	.	.	8cc\)	.
.	.	.	.	.	.	.	.	8a\J	.
=28	=28	=28	=28	=28	=28	=28	=28	=28	=28
4BB-/	.	4b-\	.	4dd\	.	4D/	.	(8b-\L	.
.	.	.	.	.	.	.	.	8dd\	.
4FF/	.	4f\	.	4cc\	.	4E-/	.	8cc\)	.
.	.	.	.	.	.	.	.	8a\J	.
!LO:LB:g=original	!	!	!	!	!	!	!	!	!
4BBB-/	.	4d/	.	4b-\	.	4D/	.	4b-\	.
4r	.	4r	.	4r	.	4r	.	4r	.
=29:|	=29:|	=29	=29	=29:|	=29:|	=29:|	=29:|	=29:|	=29:|
!	!LO:DY:rj:t=p&colon;	!LO:TX:a:t=2.	!	!LO:TX:a:t=2.	!	!	!LO:DY:rj:t=p&colon;	!	!LO:DY:rj:t=p&colon;
1Fyy\	pyy	1r	.	1r	.	1e-yy/	pyy	8ff\Lyy	pyy
.	.	.	.	.	.	.	.	(yy8ee-\yy	.
.	.	.	.	.	.	.	.	8ee-\)yy	.
.	.	.	.	.	.	.	.	8dd\yy	.
.	.	.	.	.	.	.	.	(yy8dd\Lyy	.
.	.	.	.	.	.	.	.	8ee-\)yy	.
!	!	!	!	!	!	!	!	!LO:TX:a:t=|:problem	!
.	.	.	.	.	.	.	.	8cc\yy	.
!	!	!	!	!	!	!	!	!LO:TX:a:t=|:problem	!
.	.	.	.	.	.	.	.	8a\Jyy	.
=30	=30	=30	=30	=30	=30	=30	=30	=30	=30
!	!	!	!	!	!	!	!	!LO:TX:a:t=|:problem	!
4B-\yy	.	1r	.	1r	.	4d/yy	.	4b-\yy	.
!	!	!	!	!	!	!	!	!LO:TX:a:t=|:problem	!
4F\yy	.	.	.	.	.	4a\yy	.	4cc\yy	.
!	!	!	!	!	!	!	!	!LO:TX:a:t=|:problem	!
4BB-/yy	.	.	.	.	.	4b-\yy	.	4dd\yy	.
4ryy	.	.	.	.	.	4ryy	.	4ryy	.
=31	=31	=31	=31	=31	=31	=31	=31	=31	=31
!	!LO:DY:rj	!	!LO:DY:rj:t=fu	!	!	!	!LO:DY:rj	!	!LO:DY:rj:t=fu
1FFyy/	fyy	1f/	f	1cc\	f	1E-yy/	fyy	8ff\Lyy	fyy
.	.	.	.	.	.	.	.	8ee-\yy	.
.	.	.	.	.	.	.	.	(yy8ee-\yy	.
.	.	.	.	.	.	.	.	8dd\J)yy	.
.	.	.	.	.	.	.	.	8dd\Lyy	.
.	.	.	.	.	.	.	.	(yy8ee-\yy	.
.	.	.	.	.	.	.	.	8cc\)yy	.
.	.	.	.	.	.	.	.	8a\Jyy	.
=32	=32	=32	=32	=32	=32	=32	=32	=32	=32
4BB-/yy	.	4b-\	.	4dd\	.	4D/yy	.	(yy8b-\Lyy	.
.	.	.	.	.	.	.	.	8dd\yy	.
4FF/yy	.	4f/	.	4cc\	.	4E-/yy	.	8cc\)yy	.
.	.	.	.	.	.	.	.	8a\Jyy	.
!LO:LB:g=original	!	!	!	!	!	!	!	!	!
4BBB-/yy	.	4d/	.	4b-\	.	4D/yy	.	4b-\yy	.
4ryy	.	4r	.	4r	.	4ryy	.	4ryy	.
!	!	!LO:LB:g=original	!	!	!	!	!	!LO:LB:g=original	!
=33:|!|:	=33:|!|:	=33:|!|:	=33:|!|:	=33	=33	=33:|!|:	=33:|!|:	=33:|!|:	=33:|!|:
*>D	*	*	*	*	*	*	*	*	*
*	*	*	*	*	*	*	*	*2\right	*
!	!LO:DY:rj:t=p&colon;	!	!LO:DY:rj:t=p&colon;	!	!	!	!LO:DY:rj:t=p&colon;	!	!LO:DY:rj:t=p&colon;
2G\	p	1B-/	p	1b-\	p	2e-/	p	(2ee-\	p
2F\	.	.	.	.	.	2d/	.	2dd\)	.
=34	=34	=34	=34	=34	=34	=34	=34	=34	=34
2E-\	.	1B-/	.	1b-\	.	2g/	.	(2gg\	.
2D\	.	.	.	.	.	2f/	.	2ff\)	.
=35	=35	=35	=35	=35	=35	=35	=35	=35	=35
4.G\	.	2B-/	.	2b-\	.	4.e-/	.	4.ee-\	.
!LO:TX:t=P:problem:nadprogramowa kreska taktowa	!	!	!	!	!	!	!	!	!
8G\	.	.	.	.	.	8e-/	.	8ee-\	.
=	=-	=-	=-	=-	=-	=-	=-	=-	=-
!	!	!	!	!	!	!	!LO:HP:t=cres	!	!
4.F\	.	2B-/	.	2b-\	.	4.d/	<	4.dd\	.
!	!	!	!	!	!	!	!	!	!LO:HP:t=cres
8F\	.	.	.	.	.	8d/	.	8dd\	<
!	!	!	!	!LO:LB:g=original	!	!	!	!	!
=36	=36	=36	=36	=36	=36	=36	=36	=36	=36
4.E-\	.	2B-/	.	2b-\	.	4.g\	.	4.gg\	.
8E-\	.	.	.	.	.	8g\	.	8gg\	.
4.D\	.	2B-/	.	2b-\	.	4.f\	.	4.ff\	.
8D\	.	.	.	.	.	8f\	.	8ff\	.
=37	=37	=37	=37	=37	=37	=37	=37	=37	=37
!	!	!	!LO:DY:rj:t=fu	!	!LO:DY:rj	!	!LO:DY:rj	!	!
4G\	.	4B-/	f	4b-\	f	4e-/	f	4ee-\	.
4F\	.	4B-/	.	4b-\	.	4d/	.	4dd\	.
!	!	!	!	!	!	!	!	!	!LO:DY:t=fu
4E-\	.	4B-/	.	4b-\	.	4g/	.	(4gg\	f
4D\	.	4B-/	.	4b-\	.	4f/	.	4ff\)	.
=38	=38	=38	=38	=38	=38	=38	=38	=38	=38
!	!	!	!LO:DY:rj:t=ffu	!	!LO:DY:rj	!	!LO:DY:rj	!	!LO:DY:t=ffu
8.G\L	.	8.B-/L	ff	8.b-\L	ff	8.e-/L	ff	8.ee-\L	ff
16G\K	.	16B-/Jk	.	16b-\K	.	16e-/K	.	16ee-\K	.
8.F\	.	8.B-/L	.	8.b-\	.	8.d/	.	8.dd\	.
16F\Jk	.	16B-/Jk	.	16b-\Jk	.	16d/Jk	.	16dd\Jk	.
8.E-\L	.	8.B-/L	.	8.b-\L	.	8.g\L	.	8.gg\L	.
16E-\K	.	16B-/Jk	.	16b-\K	.	16g\K	.	16gg\K	.
8.D\	.	8.B-/L	.	8.b-\	.	8.f\	.	8.ff\	.
16D\Jk	.	16B-/Jk	.	16b-\Jk	.	16f\Jk	.	16ff\Jk	.
=39	=39	=39	=39	=39	=39	=39	=39	=39	=39
!	!LO:HP:a	!	!	!	!	!	!LO:HP:a	!	!
!	!LO:DY:rj	!	!	!	!	!	!LO:DY:rj	!	!LO:DY:rj
1GG/	fp < [[	1cc\	.	1cc\	<[	1B-/	fp > ]]	1eeX\	fp < [[
!	!	!	!	!	!	!LO:LB:g=original	!	!	!
=40	=40	=40	=40	=40	=40	=40	=40	=40	=40
!	!LO:HP:a	!	!	!	!	!	!LO:HP:a	!	!
!	!LO:DY:rj	!	!	!	!	!	!LO:DY:rj	!	!LO:DY:rj
1AA/	fp < [[	1cc\	.	1cc\	<[	1e-/	fp < [[	1ee-\	fp < [[
!LO:LB:g=original	!	!	!	!	!	!	!	!	!
=41	=41	=41	=41	=41	=41	=41	=41	=41	=41
!	!LO:DY:rj:t=p&colon;	!	!	!	!	!	!	!	!LO:DY:rj:t=p&colon;
4BB-/	p	4b-\	.	4dd\	.	4f\	.	4dd\	p
4G\	.	2r	.	4r	.	4d/	.	4b-\	.
4E-\	.	.	.	4r	.	4g/	.	4cc\	.
4F\	.	4f/	.	4cc\	.	4e-/	.	4a\	.
!!linebreak:original
!	!	!LO:LB:g=original	!	!	!	!	!	!LO:LB:g=original	!
=42	=42	=42	=42	=42	=42	=42	=42	=42	=42
4BB-/	.	4d/	.	4b-\	.	4d/	.	8b-\L	.
.	.	.	.	.	.	.	.	8cc\	.
4r	.	4r	.	4r	.	4r	.	8dd\	.
.	.	.	.	.	.	.	.	8ee-\J	.
2r	.	2r	.	2r	.	2r	.	8ff\L	.
.	.	.	.	.	.	.	.	8gg\	.
.	.	.	.	.	.	.	.	8aa\	.
.	.	.	.	.	.	.	.	8bb-\J	.
=43	=43	=43	=43	=43	=43	=43	=43	=43	=43
!	!LO:DY:t=fu	!	!	!	!	!	!	!	!LO:DY:t=fu
4E-\	f	2r	.	2r	.	4B-/	.	4gg'\	f
4r	.	.	.	.	.	4r	.	4ee-'\	.
4r	.	4r	.	4r	.	4r	.	4cc'\	.
4F\	.	4f/	.	4cc\	.	4E-/	.	4a'\	.
=44	=44	=44	=44	=44	=44	=44	=44	=44	=44
4BB-/	.	4d/	.	4b-\	.	4D/	.	4b-\	.
4r	.	4r	.	4r	.	4r	.	4r	.
2r	.	2r	.	2r	.	2r	.	2r	.
==	==	==	==	==	==	==	==	==	==
*-	*-	*-	*-	*-	*-	*-	*-	*-	*-
!!!system-decoration: s1,s2,s3,s4,s5
!!!ENC: Andrzej Gręziak
!!!END: 2021-06-16
!!!EED: Leszek Kubiak
!!!EST: 2021-06-22
